public/img/logo.svg

<svg fill="none" height="40" viewBox="0 0 135 40" width="135" xmlns="http://www.w3.org/2000/svg"><path d="m47.1333 11.7185c1.2135-1.2064 2.5118-1.8727 4.0243-2.10714 2.9081-.45106 5.4514.30477 7.5585 2.39404 4.2296 4.1927 4.0776 11.6033-.3592 15.3107-3.0286 2.531-6.498 2.9788-10.0907 1.5379-3.5455-1.4221-5.4088-4.2672-5.8784-8.0628-.0704-.5701-.0917-1.1492-.0927-1.724-.0069-4.6541-.006-9.30814-.0027-13.96173.0009-1.37427.7198-2.38189 1.8573-2.6332 1.5666-.3465 2.9614.76239 2.9781 2.40439.0203 1.99741.0051 3.99482.0051 5.99224v.8505zm9.8224 7.856c-.0097-1.5679-.4983-2.9535-1.5797-4.0905-1.7683-1.8591-4.5415-1.9392-6.428-.2058-2.2383 2.0565-2.4381 5.8075-.4311 8.0928 2.0492 2.3336 5.457 2.2051 7.3087-.2818.7727-1.0376 1.1408-2.215 1.1306-3.5152z" fill="#fff"/><path d="m74.9295 16.3683c.4588-3.7341 3.5574-6.56423 7.2549-6.86899 1.3753-.11347 2.7236-.05064 4.0447.36009 3.0239.9392 5.139 3.4692 5.3735 6.658.1567 2.1311.1048 4.278.1321 6.4185.0153 1.1942.0084 2.3894.0014 3.5836-.0093 1.537-1.0086 2.6205-2.4094 2.6252-1.4053.0042-2.4241-1.0761-2.4288-2.6041-.0083-2.7598 0-5.5201-.0051-8.2799-.0005-.3695 0-.745-.0607-1.1079-.3004-1.8005-1.3076-2.7411-3.1014-2.9277-1.931-.2007-3.5932.8791-4.0136 2.6529-.1122.4736-.1261.9795-.1284 1.4704-.012 2.6984.001 5.3963-.0092 8.0947-.0051 1.3311-.5655 2.2009-1.6084 2.5689-1.544.5449-3.1598-.5593-3.1886-2.2135-.0278-1.6059-.006-3.2132-.006-4.8196-.0209-.0005-.0746-3.7604.153-5.6101z" fill="#fff"/><path d="m16.954 33.3652c-8.84621-.0248-15.973703-7.2638-15.954235-16.2024.019935-8.92554 7.217415-16.185605 16.024235-16.163099 8.8481.022979 15.9524 7.336959 15.9167 16.387199-.0343 8.8017-7.2397 16.0032-15.9872 15.9783zm14.3565-16.1827c-.0121-8.09329-6.3998-14.53892-14.3982-14.52908-7.91873.00985-14.28884 6.51972-14.27864 14.59238.00973 8.0252 6.45168 14.5342 14.37134 14.521 7.915-.0126 14.318-6.5408 14.3055-14.5848z" fill="#ea5d24"/><path d="m110.193 9.91332c.455 0 .837-.01078 1.217.00187 1.262.0422 2.174.91011 2.208 2.09121.036 1.2383-.811 2.1521-2.106 2.2464-.403.0295-.81.0046-1.271.0046-.018.2251-.043.4014-.043.5782-.003 2.1413-.008 4.2827.005 6.424.002.4084.052.8234.134 1.2238.247 1.2013.971 1.8924 2.173 2.1188.18.0338.36.0676.54.1051 1.23.2574 1.937 1.2481 1.802 2.5258-.118 1.1131-1.047 1.9182-2.234 1.9351-4.007.0562-6.859-2.5512-7.144-6.6337-.126-1.8038-.1-3.6197-.109-5.4305-.015-3.1504-.01-6.3008-.001-9.45066.004-1.57261 1.023-2.63508 2.472-2.61164 1.292.02064 2.313 1.0259 2.353 2.34907.024.81678.004 1.63497.004 2.52302z" fill="#fff"/><path d="m96.172 19.5792c0-2.3467-.0038-4.693.0013-7.0397.0033-1.5168 1.0304-2.62618 2.414-2.62243 1.3535.00328 2.4087 1.09393 2.4127 2.57273.015 4.693.014 9.3864.001 14.0794-.004 1.5248-1.0481 2.5905-2.4554 2.575-1.3743-.015-2.3685-1.092-2.3718-2.5872-.0051-2.3261-.0014-4.6517-.0014-6.9778z" fill="#fff"/><path d="m117.573 38.992c-1.127-.0047-2.002-.6269-2.349-1.6312-.326-.9448-.091-2.0438.715-2.6135.457-.3235 1.069-.5866 1.614-.5922 4.659-.0459 9.319-.0366 13.979-.0197 1.405.0052 2.484 1.1136 2.468 2.4489-.017 1.349-1.095 2.3998-2.509 2.4073-2.319.0126-11.599.0098-13.918.0004z" fill="#ea5d24"/><path d="m70.2619 19.5089c0 2.4283.0329 4.8575-.0112 7.2849-.0319 1.7554-1.7813 2.8578-3.3428 2.1469-.992-.4515-1.4411-1.2636-1.4383-2.3654.0092-3.8692.0032-7.7379.0032-11.607 0-.8642-.0111-1.7288.0042-2.5929.0255-1.3963 1.0503-2.44708 2.3774-2.45974 1.3182-.01219 2.3857 1.03014 2.4024 2.43114.0278 2.387.0078 4.7745.0078 7.1616-.0009 0-.0018 0-.0027 0z" fill="#fff"/><path d="m70.2614 4.04347c.006 1.36161-1.0341 2.44847-2.3616 2.46769-1.3428.01969-2.4302-1.08732-2.4242-2.46675.006-1.35599 1.0661-2.43394 2.3931-2.43347 1.3289 0 2.3867 1.07607 2.3927 2.43253z" fill="#fff"/><g fill="#ea5d24"><path d="m96.1937 36.5909c-.0148-1.3264 1.081-2.4555 2.3881-2.4597 1.283-.0042 2.3502 1.0812 2.3662 2.4053.015 1.3485-1.06 2.4616-2.3741 2.4574-1.2802-.0042-2.3653-1.0995-2.3802-2.403z"/><path d="m21.454 17.2297c0 1.6682.0112 3.3369-.0027 5.0047-.0195 2.3355-1.715 4.2138-4.0488 4.5106-2.0544.2612-4.1249-1.1745-4.7163-3.2957-.1145-.4108-.1882-.8487-.1901-1.2744-.0153-3.3159-.0227-6.6323-.0037-9.9482.0135-2.28103 1.5672-4.13168 3.7499-4.53304 2.026-.37275 4.1378.83413 4.8803 2.85074.2012.5467.3022 1.1577.3171 1.7424.0417 1.6467.0143 3.2952.0143 4.9429zm-1.6352-.0085c0-1.6889.0065-3.3773-.0019-5.0662-.0079-1.5965-1.2538-2.86341-2.8205-2.88545-1.5648-.02203-2.8673 1.27955-2.8715 2.90145-.0088 3.3566-.0097 6.7138 0 10.0705.0051 1.633 1.2701 2.8718 2.8868 2.8634 1.5695-.0085 2.7978-1.2618 2.8052-2.8789.0079-1.6683.0019-3.3365.0019-5.0043z"/><path d="m16.9672 15.4006c.65 0 1.1769-.533 1.1769-1.1905s-.5269-1.1905-1.1769-1.1905-1.1769.533-1.1769 1.1905.5269 1.1905 1.1769 1.1905z"/></g></svg>

<svg width="135" height="40" viewBox="0 0 135 40" fill="none" xmlns="http://www.w3.org/2000/svg">
<path d="M47.1333 11.7185C48.3468 10.5121 49.6451 9.8458 51.1576 9.61136C54.0657 9.1603 56.609 9.91613 58.7161 12.0054C62.9457 16.1981 62.7937 23.6087 58.3569 27.3161C55.3283 29.8471 51.8589 30.2949 48.2662 28.854C44.7207 27.4319 42.8574 24.5868 42.3878 20.7912C42.3174 20.2211 42.2961 19.642 42.2951 19.0672C42.2882 14.4131 42.2891 9.75906 42.2924 5.10547C42.2933 3.7312 43.0122 2.72358 44.1497 2.47227C45.7163 2.12577 47.1111 3.23466 47.1278 4.87666C47.1481 6.87407 47.1329 8.87148 47.1329 10.8689C47.1329 11.0911 47.1329 11.3138 47.1329 11.7194L47.1333 11.7185ZM56.9557 19.5745C56.946 18.0066 56.4574 16.621 55.376 15.484C53.6077 13.6249 50.8345 13.5448 48.948 15.2782C46.7097 17.3347 46.5099 21.0857 48.5169 23.371C50.5661 25.7046 53.9739 25.5761 55.8256 23.0892C56.5983 22.0516 56.9664 20.8742 56.9562 19.574L56.9557 19.5745Z" fill="white"/>
<path d="M74.9295 16.3683C75.3883 12.6342 78.4869 9.80407 82.1844 9.49931C83.5597 9.38584 84.908 9.44867 86.2291 9.8594C89.253 10.7986 91.3681 13.3286 91.6026 16.5174C91.7593 18.6485 91.7074 20.7954 91.7347 22.9359C91.75 24.1301 91.7431 25.3253 91.7361 26.5195C91.7268 28.0565 90.7275 29.14 89.3267 29.1447C87.9214 29.1489 86.9026 28.0686 86.8979 26.5406C86.8896 23.7808 86.8979 21.0205 86.8928 18.2607C86.8923 17.8912 86.8928 17.5157 86.8321 17.1528C86.5317 15.3523 85.5245 14.4117 83.7307 14.2251C81.7997 14.0244 80.1375 15.1042 79.7171 16.878C79.6049 17.3516 79.591 17.8575 79.5887 18.3484C79.5767 21.0468 79.5897 23.7447 79.5795 26.4431C79.5744 27.7742 79.014 28.644 77.9711 29.012C76.4271 29.5569 74.8113 28.4527 74.7825 26.7985C74.7547 25.1926 74.7765 23.5853 74.7765 21.9789C74.7556 21.9784 74.7019 18.2185 74.9295 16.3688V16.3683Z" fill="white"/>
<path d="M16.954 33.3652C8.10779 33.3404 0.980297 26.1014 0.999765 17.1628C1.0197 8.23726 8.21718 0.977195 17.024 0.999701C25.8721 1.02268 32.9764 8.33666 32.9407 17.3869C32.9064 26.1886 25.701 33.3901 16.9535 33.3652H16.954ZM31.3105 17.1825C31.2984 9.08921 24.9107 2.64358 16.9123 2.65342C8.99357 2.66327 2.62346 9.17314 2.63366 17.2458C2.64339 25.271 9.08534 31.78 17.005 31.7668C24.92 31.7542 31.323 25.226 31.3105 17.182V17.1825Z" fill="#EA5D24"/>
<path d="M110.193 9.91332C110.648 9.91332 111.03 9.90254 111.41 9.91519C112.672 9.95739 113.584 10.8253 113.618 12.0064C113.654 13.2447 112.807 14.1585 111.512 14.2528C111.109 14.2823 110.702 14.2574 110.241 14.2574C110.223 14.4825 110.198 14.6588 110.198 14.8356C110.195 16.9769 110.19 19.1183 110.203 21.2596C110.205 21.668 110.255 22.083 110.337 22.4834C110.584 23.6847 111.308 24.3758 112.51 24.6022C112.69 24.636 112.87 24.6698 113.05 24.7073C114.28 24.9647 114.987 25.9554 114.852 27.2331C114.734 28.3462 113.805 29.1513 112.618 29.1682C108.611 29.2244 105.759 26.617 105.474 22.5345C105.348 20.7307 105.374 18.9148 105.365 17.104C105.35 13.9536 105.355 10.8032 105.364 7.65334C105.368 6.08073 106.387 5.01826 107.836 5.0417C109.128 5.06234 110.149 6.0676 110.189 7.39077C110.213 8.20755 110.193 9.02574 110.193 9.91379L110.193 9.91332Z" fill="white"/>
<path d="M96.172 19.5792C96.172 17.2325 96.1682 14.8862 96.1733 12.5395C96.1766 11.0227 97.2037 9.91332 98.5873 9.91707C99.9408 9.92035 100.996 11.011 101 12.4898C101.015 17.1828 101.014 21.8762 101.001 26.5692C100.997 28.094 99.9529 29.1597 98.5456 29.1442C97.1713 29.1292 96.1771 28.0522 96.1738 26.557C96.1687 24.2309 96.1724 21.9053 96.1724 19.5792H96.172Z" fill="white"/>
<path d="M117.573 38.992C116.446 38.9873 115.571 38.3651 115.224 37.3608C114.898 36.416 115.133 35.317 115.939 34.7473C116.396 34.4238 117.008 34.1607 117.553 34.1551C122.212 34.1092 126.872 34.1185 131.532 34.1354C132.937 34.1406 134.016 35.249 134 36.5843C133.983 37.9333 132.905 38.9841 131.491 38.9916C129.172 39.0042 119.892 39.0014 117.573 38.992H117.573Z" fill="#EA5D24"/>
<path d="M70.2619 19.5089C70.2619 21.9372 70.2948 24.3664 70.2507 26.7938C70.2188 28.5492 68.4694 29.6516 66.9079 28.9407C65.9159 28.4892 65.4668 27.6771 65.4696 26.5753C65.4788 22.7061 65.4728 18.8374 65.4728 14.9683C65.4728 14.1041 65.4617 13.2395 65.477 12.3754C65.5025 10.9791 66.5273 9.92832 67.8544 9.91566C69.1726 9.90347 70.2401 10.9458 70.2568 12.3468C70.2846 14.7338 70.2646 17.1213 70.2646 19.5084C70.2637 19.5084 70.2628 19.5084 70.2619 19.5084V19.5089Z" fill="white"/>
<path d="M70.2614 4.04347C70.2674 5.40508 69.2273 6.49194 67.8998 6.51116C66.557 6.53085 65.4696 5.42384 65.4756 4.04441C65.4816 2.68842 66.5417 1.61047 67.8687 1.61094C69.1976 1.61094 70.2554 2.68701 70.2614 4.04347Z" fill="white"/>
<path d="M96.1937 36.5909C96.1789 35.2645 97.2747 34.1354 98.5818 34.1312C99.8648 34.127 100.932 35.2124 100.948 36.5365C100.963 37.885 99.888 38.9981 98.5739 38.9939C97.2937 38.9897 96.2086 37.8944 96.1937 36.5909Z" fill="#EA5D24"/>
<path d="M21.454 17.2297C21.454 18.8979 21.4652 20.5666 21.4513 22.2344C21.4318 24.5699 19.7363 26.4482 17.4025 26.745C15.3481 27.0062 13.2776 25.5705 12.6862 23.4493C12.5717 23.0385 12.498 22.6006 12.4961 22.1749C12.4808 18.859 12.4734 15.5426 12.4924 12.2267C12.5059 9.94567 14.0596 8.09502 16.2423 7.69366C18.2683 7.32091 20.3801 8.52779 21.1226 10.5444C21.3238 11.0911 21.4248 11.7021 21.4397 12.2868C21.4814 13.9335 21.454 15.582 21.454 17.2297ZM19.8188 17.2212C19.8188 15.5323 19.8253 13.8439 19.8169 12.155C19.809 10.5585 18.5631 9.29159 16.9964 9.26955C15.4316 9.24752 14.1291 10.5491 14.1249 12.171C14.1161 15.5276 14.1152 18.8848 14.1249 22.2415C14.13 23.8745 15.395 25.1133 17.0117 25.1049C18.5812 25.0964 19.8095 23.8431 19.8169 22.226C19.8248 20.5577 19.8188 18.8895 19.8188 17.2217V17.2212Z" fill="#EA5D24"/>
<path d="M16.9672 15.4006C17.6172 15.4006 18.1441 14.8676 18.1441 14.2101C18.1441 13.5526 17.6172 13.0196 16.9672 13.0196C16.3172 13.0196 15.7903 13.5526 15.7903 14.2101C15.7903 14.8676 16.3172 15.4006 16.9672 15.4006Z" fill="#EA5D24"/>
</svg>
